X:1
T:Title
%%score 1 { 2 | 3 }
L:1/8
Q:1/4=115
M:3/4
K:F
V:1 treble nm="Grand Piano, Soprano"
V:2 bass nm="Choir Pad, Ring the Bell Softly"
V:3 bass 
V:1
 [Fc]2 [Fc]2 [Fc]2 | [Fc]3 [GB] [FA]2 | [FA]2 [FA]2 [CG]2 | [CF]4 z2 | [DF]2 [DF]2 [FB]2 | %5
w: By~Tullius~Clinton~O’Kane,~1874 * *|||||
 [DB]3 [_Ec] [Fd]2 | [Ec]2 [EG]2 [GB]2 | [FA]4 z2 | [Fc]2 [Fc]2 [Fc]2 | [Fc]3 [GB] [FA]2 | %10
w: |||||
 [FA]2 [FA]2 [CG]2 | [CF]4 z2 | [DF]2 [DF]2 [FB]2 | [DB]3 [_Ec] [Fd]2 | [Ec]2 [EG]2 [GB]2 | %15
w: |||||
 [FA]4 z2 | [FA]2 [FA]2 [GA]2 | [FA]3 [GB] [FA]2 | [Fd]2 [E^c]2 [Ec]2 | [Fd]4 z2 | %20
w: |||||
 [FA]2 [FA]2 [FA]2 | [FA]3 [GB] [^FA]2 | G2 [FA]2 [D=B]2 | [Ec]4 z2 | [EB]2 [FB]2 [GB]2 | %25
w: |||||
 [FA]3 [EG] F2 | [Fd]2 [Fd]2 [Fd]2 | [Fd]4 z2 | [EG]3 [EG] [EG]2 | [EG]2 .[EG]2 z [EG]- | %30
w: |||||
 [EG][F_A]- [FA]3 [FA]- | [FA]/[F_A]/[EG]- [EG]2- [EG]/ z/ z | z [DF]3 [DF][DF]- | %33
w: |||
 [DF] [DF]2 [DF] z2 | [DF]2 [DF]2 [CF]2 | [CE]2 [CF]4- | [CF]4 z2 |] %37
w: ||||
V:2
 A,2 A,2 A,2 | A,3 D[K:treble] C2 | C2 C2 B,2 | A,4 z2 | B,2 B,2 D2 | B,3 B,[K:treble] B,2 | %6
 G,2 C2 C2 | C4 z2 | A,2 A,2 A,2 | A,3 D[K:treble] C2 | C2 C2 B,2 | A,4 z2 | B,2 B,2 D2 | %13
 B,3 B,[K:treble] B,2 | G,2 C2 C2 | C4 z2 | C2 C2 ^C2 | D3 D[K:bass] A,2 | A,2 A,2 A,2 | A,4 z2 | %20
 D2 D2 D2 | D3 D[K:bass] D2 | =B,2 C2 G,2 | G,4 z2 | G,2 G,2 C2 | C3 C[K:bass] C2 | B,2 B,2 B,2 | %27
 B,4 z2 | B,3 B, B,2 | B,2 .B,2 z[K:treble] C- | CC- C3 C- | C/C/C- C2- C/ z/ z | %32
 z[K:bass] A,3 A,A,- | A, A,2 A, z2 | A,2 B,2 A,2 | G,2 A,4- | A,4 z2 |] %37
V:3
 F,2 F,2 F,2 | F,3 F, F,2 | [F,,F,]2 [F,,F,]2 [F,,F,]2 | F,4 z2 | B,,2 B,,2 B,,2 | B,,3 B,, B,,2 | %6
 C,2 C,2 C,2 | [F,,F,]4 z2 | F,2 F,2 F,2 | F,3 F, F,2 | [F,,F,]2 [F,,F,]2 [F,,F,]2 | F,4 z2 | %12
 B,,2 B,,2 B,,2 | B,,3 B,, B,,2 | C,2 C,2 C,2 | [F,,F,]4 z2 | F,2 F,2 E,2 | D,3 D, D,2 | %18
 A,,2 A,,2 A,,2 | D,4 z2 | D,2 D,2 D,2 | D,3 D, D,2 | G,,2 G,,2 G,,2 | C,4 z2 | C,2 D,2 E,2 | %25
 F,3 C, A,,2 | B,,2 B,,2 B,,2 | B,,4 z2 | C,3 C, C,2 | C,2 .C,2 z C,- | C,F,- F,3 F,- | %31
 F,/F,/C,- C,2- C,/ z/ z | z D,3 D,D,- | D, D,2 D, z2 | D,2 B,,2 C,2 | C,2 [F,,F,]4- | %36
 [F,,F,]4 z2 |] %37

